X: 1415
T: the Rambler's Rest
R: reel
%S: s:3 b:12(4+4+4)
B: O'Neill's 1850 #1415
O: Early
Z: Bob Safranek, rjs@gsp.org
M: C|
L: 1/8
K: G
   B | A2(Ag) fde^c | A2(Ac) BGGB | A2(Ag) fdef | {a}gfgd BGG :|
|| f | eaaf   gfed  |  cAeA  cdef |  eaaf  gfef | gfgd BGG ||
|  f | eaaf   gfed  | ^cAeA  cdef |  afge  fdef | gfgd BGG |]
